X: 19736
T: Jenny Picking Cockles
R: reel
M: 4/4
K: Dmajor
A4=cAA2|GAA2=cAA2|GAA2=cAA2|DAAD AADA|
A4=cAA2|GAA2=cAA2|e8-|e7d|
|:d3=c AGG2|FGAB =cAA2|d3=c AGG2|AGcG EDDE|
A2d=c AGG2|FGAB =c3d|e2d=c AGEG|1 AG=cG EADE:|2 AA=cG GAde||
|:f3d efed|cAAA B/c/deg|fffd edcd|a3g edde|
f3d efed|cAAB=c3d|e2dB AGEG|1 AA=cA GAde:|2 AA=cA GAD2||

